X:1369
T:Canci\'on
C:anon.
O:Venezuela
Z:Transcribed by Frank Nordberg - http://www.musicaviva.com
F:http://abc.musicaviva.com/tunes/venezuela/cancion.abc
M:3/4
L:1/8
Q:1/4=100
K:Dm
"Dm"DE FE FG|"Dm"A2A2AB|"A7"G2E2GA|[1"Dm"F2D2 z2:|[2"Dm"F2D2AA||
"Gm"c2B2de|"Dm"d2A4|"A7"G^F GF FA|"Gm"G2=F4|"A7"E^D ED EF|"Dm"E2=D4|]
W:
W:
W:  From Musica Viva - http://www.musicaviva.com
W:  the Internet center for free sheet music downloads.
